X:1
T:Talisker on Ba bridge
C:Dominique Renaudin
S:B&D Renaudin <d140557@club-internet.fr> irtrad-l 2001-10-30
I:d140557@club-internet.fr
I:To Cape Towners
Q:1/4=200
M:4/4
L:1/8
K:D
BG FB _Bc =BG |FE _EB, _E=E FG |cd cB _BG FF |_B=B cd fF f2 |
BG FB (3BBB BG |FE _EB, _E=E FG |cd cB _BG FF |cB_B GF2 Ff ::
eB (3BBB gB fB |eB (3BBB gB fB |eB (3BBB fB eB |dA (3AAA fA eA |
dA (3AAA fA dA |eB (3BBB gB fB |eB (3BBB A2 z2 |1AD AB Ad Af:|2AB =c^c_e =e3 |]
